X:3122
T: Far Away
R: Aire
S: Utlärd av Anton Larsson
Z: Karin Arén
M: 3/4
L: 1/8
K: Bm
FA |: {A}B2 {^c}(BA) (Bd) | (cA) F2 FA |{A}B2 {^c}(BA) (Be) | c3 (cdc) | 
B2 (BA) (Bd) | (cA) F2 de | {e}(fe) (dc) (TBA) |1 B2 {^c}(BA) FA :|2 B3 (cd)e |: 
{e}f2 {g}(fe) (fa) | (ec) A2 de | {e}f2 {g}(fe) (fa) | e3 (cd)e | 
fdB ecA | dBG dBG | F2 {A}B2 {c}(BA) |1 B3 (cde) :|2 B6 |] 
(:musicend:)



(:music:)
